kora-light/actions/scalable/fcitx-chttrans-inactive.svg

<svg xmlns="http://www.w3.org/2000/svg" width="16" height="16" version="1.1">
 <defs>
  <style id="current-color-scheme" type="text/css">
   .ColorScheme-Text { color:#444444; } .ColorScheme-Highlight { color:#4285f4; }
  </style>
 </defs>
 <path style="fill:currentColor" class="ColorScheme-Text" d="M 2,0 C 0.892,0 0,0.892 0,2 V 14 C 0,15.108 0.892,16 2,16 H 14 C 15.108,16 16,15.108 16,14 V 2 C 16,0.892 15.108,0 14,0 Z M 6,2 H 13 C 12.772,5.0343 11.964,7.674 10.561,9.8359 11.585,11.126 12.931,12.245 14.6,13.193 L 14.031,14.273 C 12.4,13.401 11.017,12.283 9.8789,10.918 8.779,12.283 7.3748,13.401 5.668,14.273 L 4.9844,13.25 C 6.7291,12.378 8.0959,11.258 9.082,9.8926 7.8304,8.0341 6.9579,5.655 6.4649,3 H 6 Z M 2.3516,2.377 C 3.1974,2.8383 3.9662,3.3972 4.6582,4.0508 L 3.9082,5.0312 C 3.1393,4.3008 2.3504,3.6854 1.543,3.1855 Z M 7.6016,3 C 8.0567,5.2757 8.7962,7.3141 9.8203,8.8691 10.844,7.0486 11.49,5.0102 11.756,3 Z M 1.7754,5.6523 C 2.5443,6.0753 3.2546,6.5555 3.9082,7.0937 L 3.1016,8.0742 C 2.448,7.4206 1.7357,6.8819 0.9668,6.459 Z M 3.1016,8.9863 4.082,9.6797 C 3.6207,11.487 2.9468,13.236 2.0625,14.928 L 0.91016,14.119 C 1.8329,12.504 2.5633,10.793 3.1016,8.9863 Z"/>
</svg>

<svg xmlns="http://www.w3.org/2000/svg" style="fill-rule:evenodd;clip-rule:evenodd;stroke-linejoin:round;stroke-miterlimit:2" width="100%" height="100%" version="1.1" viewBox="0 0 16 16" xml:space="preserve">
 <defs>
  <style id="current-color-scheme" type="text/css">
   .ColorScheme-Text { color:#444444; } .ColorScheme-Highlight { color:#4285f4; } .ColorScheme-NeutralText { color:#ff9800; } .ColorScheme-PositiveText { color:#4caf50; } .ColorScheme-NegativeText { color:#f44336; }
  </style>
 </defs>
 <path style="fill:currentColor;" class="ColorScheme-Text" d="M3.102,8.986l0.98,0.694c-0.461,1.807 -1.135,3.556 -2.019,5.248l-1.153,-0.809c0.923,-1.615 1.653,-3.326 2.192,-5.133Zm2.898,-6.986l7,-0c-0.228,3.034 -1.036,5.674 -2.439,7.836c1.024,1.29 2.37,2.409 4.039,3.357l-0.569,1.08c-1.631,-0.872 -3.014,-1.99 -4.152,-3.355c-1.1,1.365 -2.504,2.483 -4.211,3.355l-0.684,-1.023c1.745,-0.872 3.112,-1.992 4.098,-3.357c-1.252,-1.859 -2.124,-4.238 -2.617,-6.893l-0.465,-0l0,-1Zm1.602,1c0.455,2.276 1.194,4.314 2.218,5.869c1.024,-1.82 1.67,-3.859 1.936,-5.869l-4.154,0Zm-5.827,2.652c0.769,0.423 1.48,0.904 2.133,1.442l-0.806,0.98c-0.654,-0.653 -1.366,-1.192 -2.135,-1.615l0.808,-0.807Zm0.577,-3.275c0.845,0.461 1.614,1.02 2.306,1.674l-0.75,0.98c-0.769,-0.73 -1.558,-1.346 -2.365,-1.845l0.809,-0.809Z"/>
</svg>
